imgs/oresle_logo.svg

<svg width="131" height="17" viewBox="0 0 131 17" fill="none" xmlns="http://www.w3.org/2000/svg">
<g id="Shape 2">
<path id="Shape" fill-rule="evenodd" clip-rule="evenodd" d="M56.5539 11.06H65.2099L60.6328 3.70904L52.2322 16.9997H48.4091L58.6269 1.03466C59.071 0.389754 59.8115 0 60.6328 0C61.427 0 62.1674 0.376217 62.5983 1.00784L72.8565 16.9997H69.0334L67.2296 14.0299H58.4657L56.5539 11.06ZM96.2673 14.0296V0.161163H93.023V15.3871C93.023 15.8037 93.1845 16.207 93.4941 16.516C93.8037 16.825 94.221 16.9997 94.6787 16.9997H109.474L111.386 14.0299H96.2671L96.2673 14.0296ZM48.3014 5.85907C48.3014 9.00367 45.7436 11.5434 42.5932 11.5434L42.5934 11.544H41.1125L47.6282 17H42.9163L33.2318 8.57407L42.378 8.58735C43.8858 8.58735 45.0973 7.36445 45.0973 5.85959C45.0973 4.35446 43.8858 3.13131 42.378 3.13131H31.6432V17H28.3999V0.160907H42.5932C45.7436 0.160907 48.3014 2.71423 48.3014 5.85907ZM8.43568 16.9997C3.77904 17 0 13.2371 0 8.58735C0 3.93738 3.77904 0.161418 8.43568 0.161418H18.2402C22.8979 0.161418 26.6741 3.93738 26.6741 8.58735C26.6741 13.2371 22.8979 16.9997 18.24 16.9997H8.43568ZM23.4825 8.58709C23.4825 11.5973 21.0391 14.0299 18.0222 14.0299H18.022H8.6524C5.63684 14.0299 3.1921 11.5973 3.1921 8.58735C3.1921 5.5771 5.63684 3.13131 8.65265 3.13131H18.0222C21.0391 3.13131 23.4825 5.5771 23.4825 8.58709ZM79.628 16.9997C74.9704 16.9997 71.1872 13.2371 71.1872 8.58735C71.1872 3.93738 74.9704 0.161418 79.628 0.161418H91.2732L89.3747 3.13131H79.8435C76.8279 3.13131 74.3778 5.5771 74.3778 8.58735C74.3778 11.5973 76.8279 14.0299 79.8435 14.0299H91.5421L89.6304 16.9997H79.628ZM114.051 10.0654C114.697 12.3636 116.811 14.0299 119.302 14.0299H131L129.088 16.9995H119.086C114.428 16.9995 110.645 13.2368 110.645 8.58684C110.645 3.93712 114.428 0.160907 119.086 0.160907H130.744L128.82 3.13131H119.302C116.811 3.13131 114.697 4.81088 114.051 7.09551H129.829L127.917 10.0654H114.051Z" fill="white"/>
</g>
</svg>

<svg width="131" height="17" fill="none" xmlns="http://www.w3.org/2000/svg"><path fill-rule="evenodd" clip-rule="evenodd" d="M56.554 11.06h8.656l-4.577-7.351-8.4 13.29h-3.824L58.627 1.036A2.416 2.416 0 0 1 60.633 0c.794 0 1.534.376 1.965 1.008L72.856 17h-3.823l-1.803-2.97h-8.764l-1.912-2.97Zm39.713 2.97V.16h-3.244v15.226c0 .417.162.82.471 1.129.31.309.727.484 1.185.484h14.795l1.912-2.97H96.267ZM48.301 5.86c0 3.144-2.557 5.683-5.708 5.683v.001h-1.48L47.627 17h-4.712l-9.684-8.426 9.146.013a2.72 2.72 0 0 0 2.72-2.727 2.721 2.721 0 0 0-2.72-2.729H31.643V17H28.4V.16h14.193c3.15 0 5.708 2.554 5.708 5.7ZM8.436 17C3.779 17 0 13.237 0 8.587S3.779.161 8.436.161h9.804c4.658 0 8.434 3.776 8.434 8.426S22.898 17 18.24 17H8.436Zm15.047-8.413c0 3.01-2.444 5.443-5.46 5.443H8.651c-3.015 0-5.46-2.433-5.46-5.443a5.46 5.46 0 0 1 5.46-5.456h9.37a5.46 5.46 0 0 1 5.46 5.456ZM79.627 17c-4.658 0-8.44-3.763-8.44-8.413S74.97.161 79.627.161h11.645l-1.898 2.97h-9.531c-3.016 0-5.466 2.446-5.466 5.456 0 3.01 2.45 5.443 5.466 5.443h11.698L89.63 17H79.628Zm34.423-6.935a5.45 5.45 0 0 0 5.251 3.965H131L129.088 17h-10.002c-4.658 0-8.441-3.763-8.441-8.413S114.428.16 119.086.16h11.658l-1.924 2.97h-9.518a5.466 5.466 0 0 0-5.251 3.965h15.778l-1.912 2.97h-13.866Z" fill="#fff"/></svg>
